img/ung.svg

<svg width="75" height="36" viewBox="0 0 75 36" fill="none" xmlns="http://www.w3.org/2000/svg">
<path d="M5.50551 27.9333C11.355 23.0542 18.4336 19.844 25.9678 18.6872C33.9041 17.4685 42.8971 17.5259 50.0289 19.2479C54.9145 20.4313 55.6086 20.6477 56.8334 21.4027C54.7244 23.9902 47.8138 28.3705 48.2073 33.6824C48.2913 34.8481 49.6443 35.453 50.5771 34.751C56.4664 30.3133 68.7181 23.0409 73.9 18.4929C74.4438 18.0159 75.0363 17.4331 75.0009 16.709C74.9699 16.0069 74.3643 15.4902 73.8071 15.062C66.7461 9.67059 59.3315 4.73841 51.6339 0.305189C50.5771 -0.304158 49.1711 0.0225933 48.5964 1.09999C48.0924 2.03608 48.6318 2.76024 49.1401 3.40492C51.5454 6.45606 53.9506 9.50721 56.3559 12.5628C43.9936 7.34801 29.549 7.57321 17.1869 12.6996C10.2497 15.5742 4.48417 20.7537 1.10181 27.4432C-0.710957 31.0375 -0.923183 33.2939 5.50551 27.9333Z" fill="#FBC8B8"/>
</svg>

<svg width="75" height="36" fill="none" xmlns="http://www.w3.org/2000/svg"><path d="M5.506 27.933a41.9 41.9 0 0 1 20.462-9.246c7.936-1.219 16.93-1.161 24.06.56 4.886 1.184 5.58 1.4 6.805 2.156-2.109 2.587-9.02 6.968-8.626 12.28.084 1.165 1.437 1.77 2.37 1.068 5.89-4.438 18.141-11.71 23.323-16.258.544-.477 1.136-1.06 1.1-1.784-.03-.702-.636-1.219-1.193-1.647A205.774 205.774 0 0 0 51.634.305c-1.057-.61-2.463-.282-3.038.795-.504.936.036 1.66.544 2.305 2.405 3.051 4.81 6.102 7.216 9.158-12.362-5.215-26.807-4.99-39.17.137-6.936 2.874-12.702 8.054-16.084 14.743-1.813 3.595-2.025 5.85 4.404.49Z" fill="#FBC8B8"/></svg>
